X: 1
T: Reavy's
M: 4/4
L: 1/8
R: reel
K: Gmaj
B2B2|:BddB cAFD|G2BG DGBG|BddB cAFD|GBAG FDCE|
DGBG cAFA|BGBA GABc|1 defg afge|
dBcA G2GA:|2 defg (3agf (3gfe|dB (3cBA G2GA||
|:B2gB aBgB|~B2gf edcB|A2 (3aaa baaf|dfaf gedc|
B2gB aBgB|~B2gf edcB|cBAg fdaf|1 gedB cAGA:|2 gdBd cAFA|G4||
